svgs/light/folder-tree.svg

<svg xmlns="http://www.w3.org/2000/svg" viewBox="0 0 576 512"><!--! Font Awesome Pro 6.6.0 by @fontawesome - https://fontawesome.com License - https://fontawesome.com/license (Commercial License) Copyright 2024 Fonticons, Inc. --><path d="M32 16C32 7.2 24.8 0 16 0S0 7.2 0 16l0 96L0 368c0 26.5 21.5 48 48 48l208 0 0-32L48 384c-8.8 0-16-7.2-16-16l0-240 224 0 0-32L32 96l0-80zM394.7 32l21.7 21.7C423 60.3 432 64 441.3 64L544 64l0 128-224 0 0-160 74.7 0zM288 32l0 160c0 17.7 14.3 32 32 32l224 0c17.7 0 32-14.3 32-32l0-128c0-17.7-14.3-32-32-32L441.3 32c-.8 0-1.7-.3-2.3-.9L417.4 9.4c-6-6-14.1-9.4-22.6-9.4L320 0c-17.7 0-32 14.3-32 32zm32 288l74.7 0 21.7 21.7C423 348.3 432 352 441.3 352L544 352l0 128-224 0 0-160zm-32 0l0 160c0 17.7 14.3 32 32 32l224 0c17.7 0 32-14.3 32-32l0-128c0-17.7-14.3-32-32-32l-102.7 0c-.8 0-1.7-.3-2.3-.9l-21.7-21.7c-6-6-14.1-9.4-22.6-9.4L320 288c-17.7 0-32 14.3-32 32z"/></svg>

<svg xmlns="http://www.w3.org/2000/svg" viewBox="0 0 576 512"><!--! Font Awesome Pro 6.4.0 by @fontawesome - https://fontawesome.com License - https://fontawesome.com/license (Commercial License) Copyright 2023 Fonticons, Inc. --><path d="M32 16C32 7.2 24.8 0 16 0S0 7.2 0 16v96V368c0 26.5 21.5 48 48 48H256V384H48c-8.8 0-16-7.2-16-16V128H256V96H32V16zM394.7 32l21.7 21.7C423 60.3 432 64 441.3 64H544V192H320V32l74.7 0zM288 32V192c0 17.7 14.3 32 32 32H544c17.7 0 32-14.3 32-32V64c0-17.7-14.3-32-32-32H441.3c-.8 0-1.7-.3-2.3-.9L417.4 9.4c-6-6-14.1-9.4-22.6-9.4H320c-17.7 0-32 14.3-32 32zm32 288h74.7l21.7 21.7C423 348.3 432 352 441.3 352H544V480H320V320zm-32 0V480c0 17.7 14.3 32 32 32H544c17.7 0 32-14.3 32-32V352c0-17.7-14.3-32-32-32H441.3c-.8 0-1.7-.3-2.3-.9l-21.7-21.7c-6-6-14.1-9.4-22.6-9.4H320c-17.7 0-32 14.3-32 32z"/></svg>
